svgs/light/rotate-left.svg

<svg xmlns="http://www.w3.org/2000/svg" viewBox="0 0 512 512"><!--! Font Awesome Pro 6.3.0 by @fontawesome - https://fontawesome.com License - https://fontawesome.com/license (Commercial License) Copyright 2023 Fonticons, Inc. --><path d="M256.1 32.11c-52.22 0-103.2 18.27-143.2 51.58C111.6 84.73 110.8 86.03 109.9 87.32L59.31 36.69c-4.562-4.562-11.5-5.875-17.44-3.469C35.91 35.69 32 41.53 32 48v128C32 184.8 39.16 192 48 192h128c6.469 0 12.31-3.906 14.78-9.875s1.094-12.88-3.469-17.44L131.8 109.1c.4961-.3281 1.076-.4453 1.541-.8359C167.7 79.72 211.3 64 256 64c105.9 0 192 86.13 192 192s-86.13 192-192 192c-59.47 0-114.7-26.91-151.4-73.88c-5.469-6.969-15.5-8.219-22.47-2.719c-6.938 5.438-8.157 15.5-2.719 22.47c42.81 54.72 107.3 86.02 176.7 86.02C379.6 479.9 480 379.5 480 256S379.6 32.11 256.1 32.11zM64 160V86.63L137.4 160H64z"/></svg>

<svg xmlns="http://www.w3.org/2000/svg" viewBox="0 0 512 512"><!-- Font Awesome Pro 6.0.0-alpha2 by @fontawesome - https://fontawesome.com License - https://fontawesome.com/license (Commercial License) --><path d="M256 32C203.781 32 152.938 50.375 112.875 83.688C111.625 84.727 110.793 86.031 109.945 87.32L59.312 36.688C54.75 32.125 47.812 30.812 41.875 33.219C35.906 35.688 32 41.531 32 48V176C32 184.844 39.156 192 48 192H176C182.469 192 188.312 188.094 190.781 182.125S191.875 169.25 187.313 164.687L131.771 109.148C132.268 108.82 132.848 108.703 133.312 108.313C167.688 79.719 211.25 64 256 64C361.875 64 448 150.125 448 256S361.875 448 256 448C196.531 448 141.344 421.094 104.625 374.125C99.156 367.156 89.125 365.906 82.156 371.406C75.219 376.844 74 386.906 79.438 393.875C122.25 448.594 186.625 480 256 480C379.5 480 480 379.5 480 256S379.5 32 256 32ZM64 160V86.625L137.375 160H64Z"/></svg>
